X:737
T:Amazing Grace
S:Memory
Z:Nigel Gatherer
M:3/4
L:1/4
Q:100
K:G
D | G2 (3B/A/G/ | B2A | G2E | D2
D | G2 (3B/A/G/ | B2A/B/ | d3- | d2
B/d/ | d2 (3B/A/G/ | B2A | G2E | D2
D | G2 (3B/A/G/ | B2A | G3-| G2 |]
<end>
<start>
